!!!Melodie: eigene
!!!Typ: Gedicht
**kern	**silbe	**silbe	**silbe	**silbe	**silbe	**silbe	**silbe	**silbe	**silbe	**silbe	**silbe	**silbe	**silbe	**silbe	**silbe	**silbe
*clefG2	*lang:DE	*lang:DE	*lang:DE	*lang:DE	*lang:DE	*lang:DE	*lang:DE	*lang:DE	*lang:DE	*lang:DE	*lang:DE	*lang:DE	*lang:DE	*lang:DE	*lang:DE	*lang:DE
*k[b-]	*	*	*	*	*	*	*	*	*	*	*	*	*	*	*	*
*M4/2	*	*	*	*	*	*	*	*	*	*	*	*	*	*	*	*
*met(c|)	*	*	*	*	*	*	*	*	*	*	*	*	*	*	*	*
4f	Herz	keu#	Kommt,	schwö#	A#	ge#	A#	dass	Ei#	vor	Nichts	weil	Hal#	dass	Lie#	O!
4a	und	#sche	ach	#ret	#ber	#gen	#ber	vor	#ner	das	als	er	#le#	ich	#be,	So
4g	Herz	Lie#	kommt,	un#	fasst	Wind	un#	sei#	rei#	La#	nur	nicht	#lu#	dem	hast	ma#
4b-	ver#	#bes#	ihr	#ser'm	auch	und	#ter	#nen	#ze	#ger	des	mit	#ja!	ins	du	#che
=	=	=	=	=	=	=	=	=	=	=	=	=	=	=	=	=
8La	#eint	#gei#	Gna#	Ü#	Schwert	Mee#	euch,	Freund	doch	nach#	Bräut#	Lö#	Wel#	Her#	es	doch
8Jg	|	|	|	|	|	|	|	|	|	|	|	|	|	|	|	|
4f	zu#	#stes#	#den#	#ber#	und	#res#	ihr	ein	den	#zu#	#'gams	#wen#	#che	#zen	ge#	die
4g	#sam#	#flam#	#kin#	#win#	Bo#	#wo#	Glie#	je#	an#	#wan#	Stim#	#grim#	Hö#	se#	#bo#	To#
4b-	#men,	#men	#der,	#der:	#gen	#gen	#der,	#der	#der'n,	#dern,	#me	#me	#he,	#he,	#ten,	#ten
=	=	=	=	=	=	=	=	=	=	=	=	=	=	=	=	=
4a	sucht	lo#	rich#	er	in	hal#	hal#	ger#	sei#	das	sei	uns	wel#	der	dass	tra#
4dd	in	#dern	#tet	sei	ver#	#tet	#tet	#ne	#nem	vor	die	in	#che	das	man	#gen
4b	Got#	auf	wie#	Gott	#ein#	fes#	es	Leib	blut#	uns	Re#	Staub	Tie#	Herz	Lie#	Gei#
4cc	#tes	das	#der	und	#te	#ten	auf	und	#be#	zur	#gel	ge#	#fe	der	#be	#ster
=	=	=	=	=	=	=	=	=	=	=	=	=	=	=	=	=
4cc	Her#	Lämm#	auf	wir	Glau#	Lie#	die#	Le#	#freund#	Schlacht#	uns#	#tre#	rei#	Lie#	ü#	Le#
4b	#zen	#lein	den	sein	#bens#	#bes#	#se	#ben	#'ten	#bank	#'rer	#ten	#cher	#be	#ben	#bens
2;cc	Ruh’,	zu;	Bund,	Mund:	#hand,	#stand;	Maß,	lass’.	Lamm	kam.	Tat,	hat,	Gnad’,	hat,	soll,	voll;
=:|	=	=	=	=	=	=	=	=	=	=	=	=	=	=	=	=
4cc	.	das	.	Er	.	bis	.	So	.	Ei#	.	son#	.	dass	.	zün#
4ff	.	vor	.	das	.	der	.	hat	.	#ner	.	#dern	.	der	.	#de
4dd	.	je#	.	Haupt,	.	Fein#	.	uns	.	soll	.	mit	.	Va#	.	an
4cc	.	#nes	.	wir	.	#de	.	der	.	den	.	ge#	.	#ter	.	die
=	=	=	=	=	=	=	=	=	=	=	=	=	=	=	=	=
4cc	.	al#	.	sei#	.	Strick	.	Freund	.	an#	.	#häuf#	.	al#	.	Lie#
4ff	.	#ten	.	#ne	.	zer#	.	ge#	.	#der'n	.	#ten	.	#ler	.	#bes#
4dd	.	Thro#	.	Glie#	.	#ris#	.	#lie#	.	wek#	.	Strö#	.	Gei#	.	#flam#
4;cc	.	#ne	.	#der,	.	#sen,	.	#bet,	.	#ken,	.	#men	.	#ster,	.	#me,
=	=	=	=	=	=	=	=	=	=	=	=	=	=	=	=	=
4cc	.	in	.	er	.	bis	.	so	.	al#	.	sei#	.	der	.	dass
4ff	.	der	.	das	.	ihr	.	zer#	.	#le	.	#nes	.	der	.	ein
4dd	.	Blut#	.	Licht	.	Rot#	.	#schmolz	.	Kräf#	.	Bluts	.	Wun#	.	je#
4cc	.	#ru#	.	und	.	#ge#	.	er	.	#te	.	den	.	#der	.	#der
=	=	=	=	=	=	=	=	=	=	=	=	=	=	=	=	=
4b-	.	#bi#	.	wir	.	#fin#	.	dort	.	da#	.	Zorn	.	Ab#	.	se#
4a	.	#nen	.	der	.	#de	.	in	.	#hin#	.	er#	.	#grund	.	#hen
2;g	.	Pracht	.	Schein,	.	weicht,	.	Blut,	.	#an	.	#tränkt.	.	ist,	.	kann,
=	=	=	=	=	=	=	=	=	=	=	=	=	=	=	=	=
4cc	.	und	.	bringt	.	bis	.	denkt	.	nach	.	Ei!	.	dass	.	wir
4f	.	in	.	er	.	das	.	doch,	.	ver#	.	Wer	.	du	.	als
4g	.	sei#	.	Ka#	.	Für#	.	wie	.	#mö#	.	will	.	un#	.	die
4f	.	#ner	.	#na#	.	#sten#	.	es	.	#gen	.	sich	.	#sicht#	.	von
=	=	=	=	=	=	=	=	=	=	=	=	=	=	=	=	=
4cc	.	Un#	.	#an	.	#volk	.	ihn	.	zu	.	nicht	.	#ba#	.	sei#
4f	.	#schulds#	.	her#	.	zer#	.	be#	.	er#	.	be#	.	#rer	.	#nem
4g	.	#kro#	.	#nie#	.	#schmis#	.	#trü#	.	#strek#	.	#que#	.	Mei#	.	Stam#
4;f	.	#ne	.	#der,	.	#sen	.	#bet,	.	#ken,	.	#men,	.	#ster	.	#me
=	=	=	=	=	=	=	=	=	=	=	=	=	=	=	=	=
4cc	.	sich	.	Ei!	.	Chris#	.	wenn	.	bis	.	dass	.	mir	.	ste#
4f	.	den	.	So	.	#to	.	ihr	.	man	.	er	.	so	.	#hen
4e	.	sei#	.	neh#	.	sich	.	euch	.	ihm	.	sich	.	sicht#	.	auch
8Lf	.	#nen	.	#men	.	zu	.	selbst	.	ge#	.	ihm	.	#bar	.	vor
8Jg	.	|	.	|	.	|	.	|	.	|	.	|	.	|	.	|
=	=	=	=	=	=	=	=	=	=	=	=	=	=	=	=	=
4cc	.	herr#	.	wir	.	Fü#	.	Ein#	.	#fal#	.	wie#	.	na#	.	ei#
4g	.	#lich	.	es	.	#ßen	.	#trag	.	#len	.	#der	.	#he	.	#nem
2;f	.	macht.	.	ein.	.	neigt.	.	tut.	.	kann.	.	schenkt?	.	bist.	.	Mann.
==	==	==	==	==	==	==	==	==	==	==	==	==	==	==	==	==
*-	*-	*-	*-	*-	*-	*-	*-	*-	*-	*-	*-	*-	*-	*-	*-	*-
